img/hotel2.svg

<svg width="49" height="49" viewBox="0 0 49 49" fill="none" xmlns="http://www.w3.org/2000/svg">
<g clip-path="url(#clip0)">
<path d="M42.2905 32.627C42.1115 32.4489 41.8656 32.3466 41.6129 32.3466C41.3612 32.3466 41.1153 32.4489 40.9363 32.627C40.7583 32.805 40.6569 33.0518 40.6569 33.3036C40.6569 33.5553 40.7583 33.8022 40.9363 33.9801C41.1153 34.1581 41.3612 34.2606 41.6129 34.2606C41.8656 34.2606 42.1115 34.1582 42.2905 33.9801C42.4685 33.8022 42.57 33.5553 42.57 33.3036C42.57 33.0518 42.4685 32.805 42.2905 32.627Z" fill="#E3CEA3"/>
<path d="M18.5341 16.2698H13.9404C13.4119 16.2698 12.9834 16.6983 12.9834 17.2268V22.586C12.9834 23.1145 13.4119 23.543 13.9404 23.543H18.5341C19.0627 23.543 19.4911 23.1145 19.4911 22.586V17.2267C19.4911 16.6982 19.0627 16.2698 18.5341 16.2698ZM17.5771 21.6291H14.8975V18.1838H17.5771V21.6291Z" fill="#E3CEA3"/>
<path d="M26.8593 16.2698H22.2656C21.7371 16.2698 21.3086 16.6983 21.3086 17.2268V22.586C21.3086 23.1145 21.7371 23.543 22.2656 23.543H26.8593C27.3878 23.543 27.8163 23.1145 27.8163 22.586V17.2267C27.8163 16.6982 27.3878 16.2698 26.8593 16.2698ZM25.9022 21.6291H23.2227V18.1838H25.9022V21.6291Z" fill="#E3CEA3"/>
<path d="M35.1844 16.2698H30.5907C30.0621 16.2698 29.6337 16.6983 29.6337 17.2268V22.586C29.6337 23.1145 30.0621 23.543 30.5907 23.543H35.1844C35.7129 23.543 36.1414 23.1145 36.1414 22.586V17.2267C36.1414 16.6982 35.7129 16.2698 35.1844 16.2698ZM34.2273 21.6291H31.5477V18.1838H34.2273V21.6291Z" fill="#E3CEA3"/>
<path d="M18.5341 26.4139H13.9404C13.4119 26.4139 12.9834 26.8425 12.9834 27.371V32.7303C12.9834 33.2587 13.4119 33.6873 13.9404 33.6873H18.5341C19.0627 33.6873 19.4911 33.2587 19.4911 32.7303V27.371C19.4911 26.8424 19.0627 26.4139 18.5341 26.4139ZM17.5771 31.7732H14.8975V28.328H17.5771V31.7732Z" fill="#E3CEA3"/>
<path d="M26.8593 26.4139H22.2656C21.7371 26.4139 21.3086 26.8425 21.3086 27.371V32.7303C21.3086 33.2587 21.7371 33.6873 22.2656 33.6873H26.8593C27.3878 33.6873 27.8163 33.2587 27.8163 32.7303V27.371C27.8163 26.8424 27.3878 26.4139 26.8593 26.4139ZM25.9022 31.7732H23.2227V28.328H25.9022V31.7732Z" fill="#E3CEA3"/>
<path d="M1.63426 38.0178C1.45626 37.8398 1.20934 37.7373 0.957642 37.7373C0.704985 37.7373 0.459028 37.8397 0.281021 38.0178C0.103013 38.1957 0.000610352 38.4426 0.000610352 38.6943C0.000610352 38.9461 0.103013 39.193 0.281021 39.371C0.459028 39.5491 0.705847 39.6514 0.957642 39.6514C1.20934 39.6514 1.45626 39.5491 1.63426 39.371C1.81227 39.193 1.91467 38.9461 1.91467 38.6943C1.91467 38.4425 1.81227 38.1956 1.63426 38.0178Z" fill="#E3CEA3"/>
<path d="M48.0425 17.5138H47.5087L47.236 15.924L48.5676 14.626C48.9599 14.2436 49.0984 13.6825 48.9291 13.1615C48.7598 12.6405 48.3179 12.2678 47.7756 12.1889L45.9356 11.9216L45.1126 10.2542C44.8702 9.76297 44.3792 9.45787 43.8314 9.45787C43.2836 9.45787 42.7927 9.76297 42.5502 10.2542L41.7273 11.9216L39.8871 12.189C39.795 12.2024 39.706 12.2249 39.6205 12.2546V12.0586C39.6205 11.5301 39.192 11.1016 38.6635 11.1016H38.1297L37.8571 9.51175L39.1887 8.21383C39.581 7.8314 39.7194 7.27029 39.5501 6.74928C39.3808 6.22827 38.939 5.8556 38.3967 5.77674L36.5566 5.50945L35.7337 3.84201C35.4913 3.35077 35.0003 3.04567 34.4525 3.04567C33.9047 3.04567 33.4138 3.35077 33.1713 3.84201L32.3484 5.50945L30.5082 5.77684C30.4934 5.77895 30.479 5.7822 30.4644 5.78478C30.7363 5.39374 30.8138 4.89819 30.6624 4.43212C30.4797 3.86996 30.0029 3.46791 29.4179 3.38273L27.018 3.03409L25.9451 0.859806C25.6835 0.329707 25.1537 0.000488281 24.5627 0.000488281C23.9716 0.000488281 23.4418 0.329707 23.1802 0.859806L22.1069 3.03456L19.707 3.38331C19.122 3.46839 18.6451 3.87043 18.4625 4.43259C18.3077 4.90939 18.3925 5.4169 18.6798 5.81196C18.6257 5.79761 18.5707 5.78545 18.5143 5.77722L16.6742 5.50992L15.8513 3.84249C15.6089 3.35125 15.1179 3.04614 14.5701 3.04614C14.0223 3.04614 13.5313 3.35125 13.2889 3.84249L12.466 5.50992L10.6258 5.77732C10.0836 5.85608 9.64177 6.22875 9.47257 6.74976C9.30327 7.27067 9.44185 7.83187 9.83414 8.2143L11.1657 9.51223L10.893 11.102H10.3361C9.80753 11.102 9.37907 11.5306 9.37907 12.0591V12.255C9.29351 12.2253 9.2045 12.2027 9.11225 12.1893L7.27216 11.922L6.44921 10.2546C6.2068 9.76335 5.71584 9.45825 5.16803 9.45825C4.62023 9.45825 4.12927 9.76335 3.88686 10.2546L3.0639 11.922L1.22373 12.1894C0.681567 12.2682 0.239706 12.6409 0.0705025 13.1619C-0.0987964 13.6828 0.0397817 14.244 0.432069 14.6264L1.76359 15.9243L1.49093 17.5142H0.957192C0.428624 17.5142 0.000160675 17.9427 0.000160675 18.4712V34.5489C0.000160675 35.0774 0.428624 35.506 0.957192 35.506C1.48576 35.506 1.91422 35.0774 1.91422 34.5489V19.4278H9.37888V39.0984C7.61526 39.3394 6.07769 40.4045 5.23034 41.9585C4.88628 41.8682 4.53046 41.8217 4.17253 41.8217C1.87709 41.8217 0.00953958 43.6892 0.00953958 45.9847C0.00953958 46.9604 0.354454 47.9093 0.980926 48.6569C1.16276 48.874 1.43131 48.9992 1.71449 48.9992H48.0421C48.5706 48.9992 48.9991 48.5707 48.9991 48.0422V18.4707C48.9995 17.9421 48.571 17.5138 48.0425 17.5138ZM42.2553 13.7791C42.7208 13.7114 43.1229 13.4191 43.331 12.9975L43.8316 11.9832L44.3321 12.9974C44.5402 13.4191 44.9423 13.7114 45.4079 13.7792L46.5274 13.9418L45.7175 14.7312C45.3807 15.0594 45.2271 15.5321 45.3065 15.9959L45.4977 17.1108L44.4965 16.5843C44.2883 16.4748 44.0601 16.4202 43.8317 16.4202C43.6034 16.4202 43.375 16.4749 43.1669 16.5843L42.1657 17.1108L42.357 15.9957C42.4365 15.5321 42.2828 15.0594 41.9461 14.7313L41.136 13.9418L42.2553 13.7791ZM40.4273 15.924L40.1546 17.5138H39.6209V15.138L40.4273 15.924ZM32.8767 7.36714C33.3422 7.29948 33.7443 7.0072 33.9524 6.58563L34.453 5.57127L34.9535 6.58544C35.1616 7.0072 35.5637 7.29948 36.0293 7.36724L37.1488 7.52983L36.3389 8.31929C36.002 8.64746 35.8484 9.12023 35.9279 9.58401L36.1191 10.6989L35.1178 10.1724C34.9097 10.0629 34.6814 10.0083 34.4531 10.0083C34.2247 10.0083 33.9964 10.063 33.7882 10.1724L32.7871 10.6989L32.9784 9.58381C33.0578 9.12023 32.9041 8.64746 32.5675 8.31939L31.7574 7.52983L32.8767 7.36714ZM29.305 6.95619C29.2273 7.4147 29.3762 7.88183 29.7171 8.21411L31.0486 9.51204L30.776 11.1019H28.7772C28.9434 10.8019 29.007 10.4499 28.9462 10.0958L28.5362 7.70564L29.305 6.95619ZM22.576 4.90058C23.0781 4.82756 23.512 4.51232 23.7367 4.05715L24.5627 2.3835L25.3888 4.05715C25.6134 4.51222 26.0473 4.82756 26.5495 4.90058L28.3965 5.16893L27.0601 6.47165C26.6966 6.82584 26.5309 7.33594 26.6166 7.83628L26.9322 9.67579L25.2801 8.80728C24.831 8.57118 24.2946 8.57108 23.8454 8.80728L22.1933 9.67579L22.5089 7.83618C22.5946 7.33594 22.4289 6.82575 22.0655 6.47165L20.729 5.16893L22.576 4.90058ZM25.5316 11.1018H23.5939L24.5627 10.5924L25.5316 11.1018ZM19.3063 8.21411C19.6785 7.85121 19.8217 7.32733 19.6907 6.82957L20.5893 7.70555L20.1794 10.0958C20.1186 10.4499 20.1822 10.8019 20.3484 11.1019H18.2474L17.9747 9.51204L19.3063 8.21411ZM12.9941 7.36714C13.4596 7.29948 13.8617 7.0072 14.0698 6.58563L14.5704 5.57127L15.0709 6.58544C15.279 7.0072 15.6811 7.29948 16.1467 7.36724L17.2662 7.52983L16.4563 8.31929C16.1194 8.64746 15.9658 9.12023 16.0453 9.58401L16.2365 10.6989L15.2353 10.1725C15.0272 10.0629 14.7988 10.0083 14.5705 10.0083C14.3421 10.0083 14.1138 10.0629 13.9055 10.1724L12.9044 10.6989L13.0957 9.58381C13.1751 9.12023 13.0214 8.64746 12.6847 8.31939L11.8747 7.52983L12.9941 7.36714ZM7.05425 14.7313C6.71737 15.0595 6.56377 15.5322 6.6432 15.996L6.83442 17.1109L5.83317 16.5844C5.62502 16.4749 5.39676 16.4203 5.16842 16.4203C4.94007 16.4203 4.71172 16.475 4.50357 16.5844L3.50242 17.1109L3.69373 15.9958C3.77316 15.5322 3.61946 15.0595 3.28278 14.7314L2.47275 13.9418L3.59219 13.7792C4.05769 13.7115 4.45983 13.4192 4.66789 12.9976L5.16851 11.9833L5.66904 12.9974C5.8771 13.4192 6.27924 13.7115 6.74484 13.7792L7.86428 13.9418L7.05425 14.7313ZM8.84562 17.5138L8.57296 15.924L9.37945 15.1378V17.5137H8.84562V17.5138ZM16.5466 47.0853H10.3363H2.21205C2.02457 46.7512 1.92399 46.3718 1.92399 45.9847C1.92399 44.7446 2.93289 43.7358 4.17291 43.7358C4.55678 43.7358 4.93595 43.8345 5.26938 44.0213C5.51859 44.1609 5.81709 44.182 6.08353 44.0787C6.34987 43.9753 6.55611 43.7583 6.64579 43.487C7.14583 41.9758 8.55152 40.9605 10.1435 40.9605C11.6067 40.9605 12.9319 41.8273 13.5195 43.1688C13.6803 43.5358 14.053 43.7644 14.453 43.7402C14.4968 43.7376 14.541 43.7358 14.5855 43.7358C15.8256 43.7358 16.8344 44.7447 16.8344 45.9847C16.8346 46.3718 16.734 46.7512 16.5466 47.0853ZM27.4337 47.0853H23.1499L24.9973 45.2378C25.3711 44.8641 25.3711 44.2581 24.9973 43.8843C24.6236 43.5107 24.0176 43.5107 23.6438 43.8843L21.6917 45.8364V43.2544C21.6968 43.2494 21.7025 43.2451 21.7075 43.24L26.4755 38.4721H27.4337V47.0853ZM21.6917 40.5491V38.4723H23.7685L21.6917 40.5491ZM47.0854 47.0852H42.5706V44.674C44.3527 44.4422 45.9354 43.5726 47.0854 42.3026V47.0852ZM42.5706 42.7385V36.6539C42.5706 36.1253 42.1422 35.6969 41.6136 35.6969C41.085 35.6969 40.6566 36.1254 40.6566 36.6539V42.7385C38.0944 42.2844 36.1418 40.0429 36.1418 37.3523C36.1418 35.8223 36.7894 34.3515 37.9184 33.3169C38.1099 33.1414 38.2219 32.8957 38.2286 32.6359C38.2761 30.7862 39.7631 29.3372 41.6136 29.3372C43.4641 29.3372 44.951 30.7863 44.9986 32.6359C45.0053 32.8957 45.1173 33.1414 45.3088 33.3169C46.4378 34.3515 47.0854 35.8223 47.0854 37.3523C47.0854 40.0429 45.1329 42.2844 42.5706 42.7385ZM47.0854 32.3944C47.0202 32.3223 46.9545 32.2505 46.8862 32.1808C46.7608 30.9477 46.2119 29.8063 45.316 28.9312C44.3204 27.9588 43.0055 27.4233 41.6136 27.4233C40.2217 27.4233 38.9068 27.9588 37.9111 28.9312C37.0153 29.8062 36.4663 30.9479 36.3409 32.1808C36.2727 32.2505 36.2069 32.3223 36.1417 32.3945V27.371C36.1417 26.8425 35.7132 26.414 35.1846 26.414H30.591C30.0624 26.414 29.634 26.8425 29.634 27.371V32.7303C29.634 33.2588 30.0624 33.6873 30.591 33.6873H35.1846C35.1918 33.6873 35.1987 33.6864 35.2058 33.6863C34.5731 34.7933 34.2276 36.0566 34.2276 37.3525C34.2276 41.1005 37.0346 44.2032 40.6564 44.6741V47.0853H29.3478V37.5151C29.3478 36.9867 28.9193 36.5581 28.3908 36.5581H20.7347C20.2062 36.5581 19.7777 36.9867 19.7777 37.5151V47.0853H18.5996C18.6974 46.7289 18.7486 46.3588 18.7486 45.9847C18.7486 43.8253 17.0961 42.0448 14.9894 41.8411C14.1896 40.4589 12.8398 39.4907 11.2933 39.1661V13.0158H37.7068V24.4999C37.7068 25.0284 38.1353 25.4569 38.6638 25.4569C39.1924 25.4569 39.6209 25.0284 39.6209 24.4999V19.4277H47.0855V32.3944H47.0854ZM34.2278 28.3279V31.7731H31.5482V28.3279H34.2278Z" fill="#E3CEA3"/>
</g>
<defs>
<clipPath id="clip0">
<rect width="49" height="49" fill="white"/>
</clipPath>
</defs>
</svg>

<svg width="49" height="49" fill="none" xmlns="http://www.w3.org/2000/svg"><g clip-path="url(#clip0)" fill="#E3CEA3"><path d="M42.29 32.627a.966.966 0 00-.677-.28.966.966 0 00-.677.28.963.963 0 000 1.353c.18.178.425.28.677.28a.966.966 0 00.678-.28.963.963 0 00.279-.676.963.963 0 00-.28-.677zM18.534 16.27H13.94a.957.957 0 00-.957.957v5.359c0 .529.429.957.957.957h4.594a.957.957 0 00.957-.957v-5.36a.957.957 0 00-.957-.956zm-.957 5.36h-2.68v-3.446h2.68v3.445zm9.283-5.36h-4.594a.957.957 0 00-.957.957v5.359c0 .529.428.957.957.957h4.593a.957.957 0 00.957-.957v-5.36a.957.957 0 00-.957-.956zm-.958 5.36h-2.68v-3.446h2.68v3.445zm9.282-5.36h-4.593a.957.957 0 00-.957.957v5.359c0 .529.428.957.957.957h4.593a.957.957 0 00.957-.957v-5.36a.957.957 0 00-.957-.956zm-.957 5.36h-2.68v-3.446h2.68v3.445zm-15.693 4.784H13.94a.957.957 0 00-.957.957v5.36c0 .528.429.956.957.956h4.594a.957.957 0 00.957-.957v-5.359a.957.957 0 00-.957-.957zm-.957 5.36h-2.68v-3.446h2.68v3.445zm9.283-5.36h-4.594a.957.957 0 00-.957.957v5.36c0 .528.428.956.957.956h4.593a.957.957 0 00.957-.957v-5.359a.957.957 0 00-.957-.957zm-.958 5.36h-2.68v-3.446h2.68v3.445zM1.634 38.018a.964.964 0 00-.676-.28.962.962 0 00-.677.28.964.964 0 00-.28.676c0 .252.102.499.28.677.178.178.425.28.677.28a.964.964 0 00.676-.28.964.964 0 00.28-.677.963.963 0 00-.28-.676z"/><path d="M48.042 17.514h-.533l-.273-1.59 1.332-1.298a1.42 1.42 0 00.361-1.464 1.42 1.42 0 00-1.153-.973l-1.84-.267-.823-1.668a1.42 1.42 0 00-1.282-.796 1.42 1.42 0 00-1.28.796l-.824 1.668-1.84.267a1.447 1.447 0 00-.267.066v-.196a.957.957 0 00-.956-.957h-.534l-.273-1.59 1.332-1.298a1.42 1.42 0 00.361-1.465 1.42 1.42 0 00-1.153-.972l-1.84-.268-.823-1.667a1.42 1.42 0 00-1.282-.796 1.42 1.42 0 00-1.28.796l-.824 1.667-1.84.268-.044.008a1.53 1.53 0 00.198-1.353 1.533 1.533 0 00-1.244-1.05l-2.4-.348L25.945.86A1.532 1.532 0 0024.563 0c-.591 0-1.121.33-1.383.86l-1.073 2.175-2.4.348a1.532 1.532 0 00-1.245 1.05 1.53 1.53 0 00.218 1.379 1.476 1.476 0 00-.166-.035l-1.84-.267-.823-1.668a1.42 1.42 0 00-1.28-.796 1.42 1.42 0 00-1.282.796l-.823 1.668-1.84.267a1.42 1.42 0 00-1.153.973 1.42 1.42 0 00.361 1.464l1.332 1.298-.273 1.59h-.557a.957.957 0 00-.957.957v.196a1.448 1.448 0 00-.267-.066l-1.84-.267-.823-1.667a1.42 1.42 0 00-1.281-.797 1.42 1.42 0 00-1.281.797l-.823 1.667-1.84.267a1.42 1.42 0 00-1.153.973 1.42 1.42 0 00.361 1.464l1.332 1.298-.273 1.59H.957a.957.957 0 00-.957.957V34.55a.957.957 0 001.914 0V19.428H9.38v19.67a5.586 5.586 0 00-4.149 2.86 4.168 4.168 0 00-5.22 4.026c0 .976.344 1.925.97 2.673a.96.96 0 00.734.342h46.328a.957.957 0 00.957-.957V18.471a.956.956 0 00-.957-.957zm-5.787-3.735a1.43 1.43 0 001.076-.781l.5-1.015.501 1.014c.208.422.61.714 1.076.782l1.12.163-.81.79c-.337.327-.49.8-.412 1.264l.192 1.115-1.002-.527a1.427 1.427 0 00-1.33 0l-1 .527.191-1.115a1.428 1.428 0 00-.41-1.265l-.811-.79 1.12-.162zm-1.828 2.145l-.272 1.59h-.534v-2.376l.806.786zm-7.55-8.557a1.43 1.43 0 001.075-.781l.501-1.015.5 1.014c.209.422.61.714 1.076.782l1.12.163-.81.79c-.337.327-.49.8-.411 1.264l.191 1.115-1.001-.527a1.427 1.427 0 00-1.33 0l-1 .527.19-1.115a1.429 1.429 0 00-.41-1.265l-.81-.79 1.119-.162zm-3.572-.41c-.078.458.071.925.412 1.257l1.332 1.298-.273 1.59h-1.999c.166-.3.23-.652.17-1.006l-.41-2.39.768-.75zM22.576 4.9a1.542 1.542 0 001.16-.844l.827-1.674.826 1.674c.224.455.658.77 1.16.844l1.848.268-1.337 1.303c-.363.354-.53.864-.443 1.364l.315 1.84-1.652-.869a1.541 1.541 0 00-1.435 0l-1.652.869.316-1.84c.086-.5-.08-1.01-.444-1.364L20.73 5.169l1.847-.268zm2.956 6.2h-1.938l.969-.509.969.51zm-6.226-2.887a1.42 1.42 0 00.385-1.384l.898.876-.41 2.39c-.06.354.003.706.17 1.006h-2.102l-.272-1.59 1.331-1.298zm-6.312-.847a1.43 1.43 0 001.076-.781l.5-1.015.5 1.014c.209.422.611.714 1.077.782l1.12.163-.81.79c-.338.327-.491.8-.412 1.264l.191 1.115-1-.527a1.426 1.426 0 00-1.33 0l-1.002.527.192-1.115a1.429 1.429 0 00-.411-1.265l-.81-.79 1.12-.162zm-5.94 7.364c-.337.329-.49.801-.41 1.265l.19 1.115-1-.527a1.427 1.427 0 00-1.33 0l-1.002.527.192-1.115a1.428 1.428 0 00-.411-1.265l-.81-.79 1.12-.162a1.43 1.43 0 001.075-.781l.5-1.015.501 1.014c.208.422.61.714 1.076.782l1.12.163-.81.79zm1.792 2.783l-.273-1.59.806-.786v2.376h-.533zm7.7 29.571H2.213A2.251 2.251 0 015.27 44.02a.958.958 0 001.377-.534 3.678 3.678 0 013.497-2.526c1.464 0 2.789.866 3.377 2.208.16.367.533.595.933.571.044-.002.088-.004.133-.004a2.251 2.251 0 011.96 3.35zm10.888 0H23.15l1.847-1.847a.957.957 0 10-1.353-1.354l-1.952 1.952v-2.582l.015-.014 4.768-4.768h.959v8.613zm-5.742-6.536v-2.077h2.076l-2.076 2.077zm25.393 6.536h-4.514v-2.411a7.373 7.373 0 004.514-2.371v4.782zm-4.514-4.346v-6.085a.957.957 0 10-1.914 0v6.084a5.48 5.48 0 01-4.515-5.386c0-1.53.647-3 1.776-4.035a.957.957 0 00.31-.681 3.367 3.367 0 013.386-3.299c1.85 0 3.337 1.45 3.385 3.299.006.26.118.505.31.68a5.487 5.487 0 011.776 4.036 5.48 5.48 0 01-4.514 5.387zm4.514-10.345a7.284 7.284 0 00-.199-.213 5.27 5.27 0 00-1.57-3.25 5.27 5.27 0 00-3.702-1.508 5.27 5.27 0 00-3.703 1.508 5.271 5.271 0 00-1.57 3.25 8.15 8.15 0 00-.2.214V27.37a.957.957 0 00-.956-.957H30.59a.957.957 0 00-.957.957v5.36c0 .528.428.956.957.956h4.614a7.395 7.395 0 00-.977 3.666c0 3.747 2.807 6.85 6.428 7.321v2.411H29.348v-9.57a.957.957 0 00-.957-.957h-7.656a.957.957 0 00-.957.957v9.57H18.6a4.169 4.169 0 00-3.61-5.244 5.603 5.603 0 00-3.697-2.675v-26.15h26.414V24.5a.957.957 0 001.914 0v-5.072h7.465v12.966zm-12.857-4.066v3.445h-2.68v-3.445h2.68z"/></g><defs><clipPath id="clip0"><path fill="#fff" d="M0 0h49v49H0z"/></clipPath></defs></svg>
